X:15
T:Queen of the Fair
C:Trad.
D:"Cooley", track 11a
M:6/8
R:jig
K:D
AG|FEF D2A,|DFA dAF|GFG EFG|BGE EAG|
FEF DA,A,|DFA dAF|GFG EAG|1 FDD D2E:|2 FDD D2e|
|:fdf ece|dAG FED|DFA dAF|GFG E2e|
fdf ece|dAG FEF|EFG EAG|1 FDD D2e:|2 FDD D2B|
|:Add fdd|add fdd|Bef ~g3|fdf ecA|
[1 Add fdd|add fdB|EFG dAG|FDD D2B:|
[2 afa geg|fdf ecA|EFG dAG|FDD D3||
